X:1
T:Title
%%score { 1 | 2 }
L:1/8
M:6/8
K:D
V:1 treble nm="Grand Piano"
V:2 bass 
V:1
 z3 z2[Q:1/4=90] D | FFF [CE][DF][EG] | [A,DF]3[K:bass] [F,D]3 | [A,CE]3[K:treble] [A,CG]3 | %4
 [A,DF]3 [DFA]2 [DFA] | [DGB][DGB][DGB] [DBd][DAc][DGB] | [DFA]3 [A,DF]2 [B,DG] | [A,DF]3 [G,CE]3 | %8
[M:5/8] D-D- D3 |[M:1/8] D |[M:3/4] F3 G FE | A4- A[FA] | [GB]3 [Bd] [Ac][GB] | [FA]4- [FA][FA] | %14
 [Fd][Gc] [Ad]e dB | [FA][=F^G] [^FA][^DFB] [DFA][B,DF] | [B,EG]3 [A,EG] [A,DF][K:bass][G,CE] | %17
[M:5/8] [F,D]-[F,D]- [F,D]3 |] %18
V:2
 z3 z2 [D,F,A,] | [D,A,D][D,A,D][D,A,D] [A,,A,][A,,A,][A,,A,] | D,3 D,3 | A,,3 A,,3 | D,3 D,2 D, | %5
 G,G,G, G,G,G, | D,3 D,2 D, | A,,3 A,,3 |[M:5/8] [D,F,]-[D,F,]- [D,F,]3 |[M:1/8] [D,F,A,] | %10
[M:3/4] [D,A,D]3 [E,A,C] [A,C][G,A,C] | [F,A,D]4- [F,A,D][D,D] | [G,D]3 [G,D]2 [A,D] | %13
 [D,D]4- [D,D][D,D] | [D,A,][E,A,] [F,D][K:treble][G,B,G] [G,B,F][G,DG] | %15
 [D,D][D,D] [D,D]B,, B,,B,, | E,3 A,, A,,A,, |[M:5/8] D,-D,- D,3 |] %18

